X: 27751
T: Morning Star, The
R: reel
M: 4/4
K: Dmajor
|:B2BA BGEF|G2Bd efgd|B3A BGEF|GBAF G2GA:|
Bdef gfeg|fedf edBA|Bdef gfeg|fedf e2ed|
Bdef g2eg|f2df edBA|Bddc d2de|faaf gfed||

